X: 1
T: String Quartet in E Major opus 54 no 3 mvt 2
C: Franz Joseph Haydn
%%abc-version 2.0
%%abcx-abcm2ps-target-version 5.9.1 (29 Sep 2008)
%%abc-creator hum2abc beta
%%abcx-conversion-date 2021/02/14 14:38:36
%%abc-copyright Copyright (c) 1994, 2000 Center for Computer Assisted Research in the Humanities
%%abc-edited-by Frances Bennion
%%abcx-initial-encoding-date 1997/04/15
%%gracespace 0 6 6
%%humdrum-veritas 2066674634
%%humdrum-veritas-data 2905292369
%%linebreak <none>
%%barnumbers 0
L: 1/16
M: 3/4
N: Derived from op54n3-02.krn
Q: "Largo"
%%staves [1 2 3 4]
V: 1
V: 2
V: 3 clef=alto
V: 4 clef=bass
K: A
[V:1]e2>>d2 czBz AzBz [I:setbarnb2]|
[V:2]c2>>B2 AzEz CzEz |
[V:3]A,4 z8 |
[V:4]A,,4 z8 |
[V:1]c2>>d2 ez7 |
[V:2]A2>>B2 c2z6 |
[V:3]E2>>D2 CzB,z A,zB,z |
[V:4]C2>>B,2 A,zE,z C,zE,z |
[V:1]a2>>g2 f2e2 d2c2 |
[V:2]A12- |
[V:3]C3D/E/ F2=G2 A2F2 |
[V:4]A,3B,/C/ D2E2 F2^D2 |
[V:1]cd^d>e B2z6 |
[V:2]A4 G2z6 |
[V:3]E4 E,2z6 |
[V:4]E4 E,2>E,2 ^D,E,F,E, |
[V:1]d2>>c2 BzBz czdz |
[V:2]B2>>A2 GzGz AzBz |
[V:3]G2>>A2 BzEz EzEz |
[V:4]E,4 E,zDz CzB,z |
[V:1]e3f//g//a//b// c'4 a2f2 |
[V:2]c4 A8 |
[V:3]E8 ^D4 |
[V:4]A,4 F,8 |
[V:1]bBaf e2zg a2z^d |
[V:2]E2cA G2z2 F2z2 |
[V:3]E2A,2 B,2z2 ^D2z2 |
[V:4]G,2A,2 B,2z2 B,,2z2 |
[V:1]f4 e2z6 |
[V:2]A4 G2z6 |
[V:3]^D4 E2z6 |
[V:4]E,4- E,E^DE =DB,G,F,/E,/ |
[V:1]f4 e2z6 |
[V:2]A4 G2z6 |
[V:3]^D4 E2z6 |
[V:4]E,4- E,E^DE B,G,A,G,/F,/ |
[V:1][E2d2]>>c2 BAGA GABc |
[V:2]B2>>A2 GEDE DEDC |
[V:3]G,2>>A,2 B,CB,C B,CB,A, |
[V:4]E,4- E,E,E,E, E,E,E,E, |
[V:1](3:2:2d2-d//e/f/e/d2 z3G/ B/A/=c/B/d/|
[V:2]B,4 z8 |
[V:3]G,4 z8 |
[V:4]E,4 z8 |
[V:1]=c3d/c/ B2zB dBdB |
[V:2]zE=FF F^DEE E4- |
[V:3]z12 |
[V:4]A,4 G,8 |
[V:1]=c3d/c/ BBze AAzA |
[V:2]EE=FF F^DEE EC=DD |
[V:3]z12 |
[V:4]A,4 G,2=G,2 F,2=F,2 |
[V:1]GGzA/G//A// GGzA/G//A// GGzA/G//A// |
[V:2]D12- |
[V:3]B,12- |
[V:4]E,2=F,2 E,2F,2 E,2F,2 |
[V:1]G>AB>=c d>e=fe2 <b2a |
[V:2]D4 z8 |
[V:3]B,4 z8 |
[V:4]E,4 z8 |
[V:1]g>ab>=c' (3:2:2d'4-d'/c'b a|
[V:2]d4 z8 |
[V:3]B4 z8 |
[V:4]E4 z8 |
[V:1]g2z4 <f4 z2 |
[V:2]z4 d6 z2 |
[V:3]z12 |
[V:4]z12 |
[V:1]e2>>d2 czBz AzBz |
[V:2]c2>>B2 AzEz CzEz |
[V:3]A,4 z8 |
[V:4]A,,4 z8 |
[V:1]c2>>d2 e2z6 |
[V:2]A2>>B2 c2z6 |
[V:3]E2>>D2 CzB,z A,zB,z |
[V:4]C2>>B,2 A,zE,z C,zE,z |
[V:1]a2>>g2 f2e2 d2c2 |
[V:2]A12- |
[V:3]C3D/E/ F2=G2 A2F2 |
[V:4]A,3B,/C/ D2E2 F2^D2 |
[V:1]cd^d>e B2z6 |
[V:2]A4 G2z6 |
[V:3]E4 E,2z6 |
[V:4]E4 E,2>E,2 ^D,E,F,E, |
[V:1]d2>>c2 BzBz czdz |
[V:2]B2>>A2 GzGz AzBz |
[V:3]G2>>A2 BzEz EzEz |
[V:4]E,4- E,zDz CzB,z |
[V:1]e3f//g//a//b// c'2>>b2 a>gf/>e/d3//c// |
[V:2]c4 [A4e4] z4 |
[V:3]E4 [E4A,4] z4 |
[V:4]A,4 C,4 z4 |
[V:1]BBdf A2z/A/A edz/G/G |
[V:2]F2z2 C2z2 B,2z2 |
[V:3]D,2z2 E,2z2 G,2z2 |
[V:4]D,2z2 E,2z2 E,2z2 |
[V:1]B4 A2z6 |
[V:2]D4 C2z6 |
[V:3]G,4 A,2z6 |
[V:4]A,,4- A,,A,G,A, E,C,C,B,,/A,,/ |
[V:1]B4 A2z6 |
[V:2]D4 C2z6 |
[V:3]G,4 A,2z6 |
[V:4]A,,4- A,,A,G,A, E,=C,D,C,/B,,/ |
[V:1]zaga e=ccB/A/ G/A/B/c/d/e/=f/e/ |
[V:2]EEEE EEEE EEEE |
[V:3]=CCCC CCCC CCCC |
[V:4]A,,A,A,A, A,A,A,A, A,A,A,A, |
[V:1]eb^ab g/^d/e/^A/B/^^F/G/^D/ E/G/B/d/e/g/b/d'/ |
[V:2]EEEE EEEE EEEE |
[V:3]B,B,B,B, B,B,B,B, B,B,B,B, |
[V:4]G,G,G,G, G,G,G,G, G,G,G,G, |
[V:1]=c'c'ba =g/=f/e/f/e/f/e/f/ g//f//e//f//g//f//e//f//a//f//e//f//g//f//e//f// |
[V:2]EEEE =FFFF FFFF |
[V:3]=CCCC CCCC CCCC |
[V:4]A,A,A,A, A,A,A,A, A,A,A,A, |
[V:1]=g//=f//a//g//f//e//d//c//d//e//f//g//f//e//d//=c// B//c//d//e//d//c//B//A//=G//B//A//c//B//d//c//e// d/f/g/b/d'/b/g/f/- |
[V:2]=FFF^F =GGGG GGGG |
[V:3]DDDD DDDD DDDD |
[V:4]B,B,B,B, B,B,B,B, B,B,B,B, |
[V:1]f/e^de=f/ ^f/=g^g/a/b=c'/ d'/e'd'c'b/- |
[V:2]=GGGG GGGG =CCCC |
[V:3]EEEE EEEE =G,G,G,G, |
[V:4]=CCCC CCCC E,E,E,E, |
[V:1]b/a/a/a/g/a/a/a/ b//a//=c'//b//d'//c'//b//a//=g//f//a//g//b//a//g//=f// e//d//f//e//g//f//e//d//=c//B//c//B//c//B//c//B// |
[V:2]=CCCC DDDD CCEE |
[V:3]A,A,A,A, A,A,A,A, A,A,A,A, |
[V:4]=F,F,F,F, F,F,F,F, ^F,F,F,F, |
[V:1]=c/=G/c/e/=g/=c'/e'/=g'/ d'8 |
[V:2]EEEE =FFFF BBBB |
[V:3]=CCCC B,B,B,B, =FFFF |
[V:4]=G,G,G,G, G,G,G,G, =G,,G,,G,,G,, |
[V:1]=c'4 z8 |
[V:2]=cE=F=G ABcd edcB |
[V:3]E=CDE =F=GAB =cBA^G |
[V:4]=C,4 z4 zE,E,E, |
[V:1]=c'4 z8 |
[V:2]=ceee eeee eeee |
[V:3]E=ccc cccc cccc |
[V:4]=C,=CB,C =G,E,=F,E,/D,/ C,E,G,C |
[V:1]z12 |
[V:2]dddd dddd dddd |
[V:3]=cccc BBBB BBBB |
[V:4]=G,=GFG DB,=CB,/A,/ G,B,D^G, |
[V:1]z12 |
[V:2]=cccc cccc cccc |
[V:3]BBBB AAAA AAAA |
[V:4]A,A,G,A, E,=C,D,C,/B,,/ A,,C,=F,,^D,, |
[V:1]zb^ab g=fdB G=FE/D/=C/B,/ |
[V:2]BB,B,B, B,B,B,B, B,B,B,B, |
[V:3]GG,G,G, G,G,G,G, G,G,G,G, |
[V:4]E,,E,E,E, E,E,E,E, E,E,E,E, |
[V:1]A,=c'bc' a^deB =c/G/A/E/D/=C/B,/A,/ |
[V:2]=CCCC CCCC CCCC |
[V:3]A,A,A,A, A,A,A,A, A,A,A,A, |
[V:4]E,E,E,E, E,E,E,E, E,E,E,E, |
[V:1]z=c'af ^d=cAF ^D/F/AcD |
[V:2]=CCCC CCCC CCCC |
[V:3][A,F,][A,F,][A,F,][A,F,] [A,F,][A,F,][A,F,][A,F,] [A,F,][A,F,][A,F,][A,F,] |
[V:4]^D,D,D,D, D,D,D,D, D,D,D,D, |
[V:1]^D4 EGAB =c^cd^d |
[V:2]=C4 B,EFG A^AB^B |
[V:3]A,4 G,2z6 |
[V:4]E,4 E,,2z6 |
[V:1]e2>>d2 cc/e/BB AABB |
[V:2]c2>>B2 AAEE CCEE |
[V:3]A,4 z8 |
[V:4]A,,4 z8 |
[V:1]c2c>d e2z6 |
[V:2]A2A>B c2z6 |
[V:3]E2>>D2 CC/E/B,B, A,A,B,B, |
[V:4]C2>>B,2 A,A,E,E, C,C,E,E, |
[V:1]a2>>g2 ffze zdzc |
[V:2]A12- |
[V:3]C3D/E/ F2=G2 A2F2 |
[V:4]A,3B,/C/ D2E2 F2^D2 |
[V:1]cd^d>e d//e//d//e//d//e//d//e//d//e//d//e//d//e//d//e// B2z2 |
[V:2]A2z2 G2z6 |
[V:3]E2z2 E,2z2 >G,2G,G, |
[V:4]E2z2 E,2z2 >E,2E,E, |
[V:1]d3(3e/d/c/ BBzB zczd |
[V:2]B3(3c/B/A/ GzGz AzBz |
[V:3]G2>>A2 BzEz EzEz |
[V:4]E,4- E,zDz CzB,z |
[V:1]e3f//g//a//b// c'c'c'c' ^b/c'/c'/c'/ag/f/ |
[V:2]c4 B/A/G/A/G/A/G/A/ AAAA |
[V:3]E8 ^D4 |
[V:4]A,4 F,8 |
[V:1]b/b/b/B/a/a/a/f/ e/>g/gb/>g/g baf^d |
[V:2]E2c>A G2z2 F2z2 |
[V:3]E2A,2 B,2z2 ^D2z2 |
[V:4]G,2A,2 B,2z2 B,,2z2 |
[V:1]^d2fe e2z6 |
[V:2]A4 G2z6 |
[V:3]F2^D>E E2z6 |
[V:4]E,4- E,E^DE B,G,A,G,/F,/ |
[V:1][E2d2]>>c2 BAGA GABc |
[V:2]B2>>A2 GEDE DEDC |
[V:3]G,2>>A,2 B,CB,C B,CB,A, |
[V:4]E,4- E,E,E,E, E,E,E,E, |
[V:1]d2d/e/f/e/ d//e//f//e//d//e//f//e//d//e//f//e//d//e//f//e// dG/B/A/=c/B/d/ |
[V:2]B,4 z8 |
[V:3]G,4 z8 |
[V:4]E,4 z8 |
[V:1]=c3d/^B/ =BBzB dBdB |
[V:2]zE=FF F^DEE E4- |
[V:3]z12 |
[V:4]A,4 G,8 |
[V:1]=c3d/^B/ =BBze AAzA |
[V:2]EE=FF F^DEE EC=DD |
[V:3]z12 |
[V:4]A,4 G,2=G,2 F,2=F,2 |
[V:1]GGzA/G//A// GGzA/G//A// GGzA/G//A// |
[V:2]D12- |
[V:3]B,12- |
[V:4]E,2=F,2 E,2F,2 E,2F,2 |
[V:1]G>AB>=c d>e=fe2 <b2a |
[V:2]D4 z8 |
[V:3]B,4 z8 |
[V:4]E,4 z8 |
[V:1]g>ab>=c' (3:2:2d'4-d'/c'b a|
[V:2]d4 z8 |
[V:3]B4 z8 |
[V:4]E4 z8 |
[V:1]g2z4 <f4 z2 |
[V:2]z4 d6 z2 |
[V:3]z12 |
[V:4]z12 |
[V:1]e2>>d2 cc/e/BB AABB |
[V:2]c2>>B2 AAEE CCEE |
[V:3]A,4 z8 |
[V:4]A,,4 z8 |
[V:1]c2>>d2 e2z6 |
[V:2]A2>>B2 c2z6 |
[V:3]E2>>D2 CC/E/B,B, A,A,B,B, |
[V:4]C2>>B,2 A,A,E,E, C,C,E,E, |
[V:1]A/B/c/d//e//f//g//a//b//c'//b//a//g// ff2e ^d=dc^B |
[V:2]A12- |
[V:3]C3D/E/ F2=G2 A2F2 |
[V:4]A,3B,/C/ D2E2 F2^D2 |
[V:1]cd(3:2:2^d2-d//e/d/ e/d/e/f/e/B2 ^Bc|
[V:2]A4 G2z6 |
[V:3]E4 E,2z6 |
[V:4]E4 E,2z6 |
[V:1]d3/c//B//A//G//F//E//D//C//B,//A,// G,2BB ccdd |
[V:2][B4E4] z2GG AABB |
[V:3][G4B,4] z2EE EEEE |
[V:4]E,4 z2DD CCB,B, |
[V:1]e3f//g//a//b// c'2>>b2 a>gf/>e/d3//c// |
[V:2]c4 [A4e4] z4 |
[V:3]E4 [E4A,4] z4 |
[V:4]A,4 C,4 z4 |
[V:1]BBdf A2z/A/A edz/G/G |
[V:2]F2z2 C2z2 B,2z2 |
[V:3]D,2z2 E,2z2 G,2z2 |
[V:4]D,2z2 E,2z2 E,2z2 |
[V:1]B4 AAAA A3/B//c//d//e//f//g//a//b//c'//d'// |
[V:2]D4 C2z2 >A2GF |
[V:3]G4 A2z2 >A,2A,A, |
[V:4]F,4 z4 zF,E,D, |
[V:1]e'2>>d'2 c'/>d'/b/>c'/a/>b/g/>a/ (3:2:12f/g/f/e/f/e/d/e/d/ c/d/c/|
[V:2]E4 z8 |
[V:3]A,4 z8 |
[V:4]C,4 z8 |
[V:1]BBdf A2z/A/A edz/G/G |
[V:2]F2z2 C2z2 B,2z2 |
[V:3]D,2z2 E,2z2 G,2z2 |
[V:4]D,2z2 E,2z2 E,2z2 |
[V:1]B>=c^c/d/^d/e/ A2z6 |]
[V:2]D4 C2z6 |]
[V:3]E2>>G,2 A,2z6 |]
[V:4]A,,6 z6 |]

